X:15
T: Es waren zwei Gespielen
N: L0070B
O: Europa, Mitteleuropa, Deutschland
N: Muendl. aus Schlesien
R: Lied
M: 3/4
L: 1/8
K: F
C | FAc2G2 | A2G2z
c | cef2d2 | e2c2z
c | cef2g2 | fdc2z
A | Bdc2G2 | A2F2z
c | cef2g2 | fdc2z
A | Bdc2G2 | A2F2z

@@@ Tune index: 5419
